X: 4
T:L'inconnu de Limoise
Z:Transcrit et/ou corrig par Michel BELLON - 2005-03-08
Z:Pour toute observation mailto:galouvielle@free.fr
M:3/4
L:1/8
S:J F Heintzen
R:Mazurka
Z:Steve Mansfield
K:C
G c>d | e2- e>efd | e2- e>ef>g | f2- f>e d>c | d3 G c>d | e2- e>efd | e2- e>ef>g | f2- f>e d>c|d3::
e f>g|a2 c'>b a>b|g3 f e>d|c>B c>d e>c|G4 c>B|A2A>B c>d|c2B2A2|1B2 B>c d>e|d3:|2B2B>c d>B|c3||
%%footer $D   Galouvielle-MBe 2005 \nMaraichine France
